!!!!SEGMENT: pl-cz--d-ii-43--006_elsner-jozef--msza-pasterska-sanctus.krn
!!!cenid: 18xx:202
!!!COM: Elsner, Józef
!!!COM-rismid: pe30000957
!!!CDT: 1769/06/01-1854/04/18
!!!CNT: Polish
!!!OPR: Msza pasterska
!!!OTL: Sanctus
!!!OMV: 006
!!!OMD: SANCTUS.
!!!PDT: 1843
!!!AGN: Sacred; Mass
!!!SMS-siglum: PL-CZ
!!!SMS-shelfmark: D II-43
!!!SMS-shelfwork: 001-006 M
!!!NIFC-rismid:
!!!URL-scan: http://repozytorium.nifc.pl/skany/pl-cz-nut--dii-43
!!!ONB-nifc: UWAGA: części Mszy: Kyrie, Gloria, Graduale, Credo, Offertorium, Sanctus, Benedictus, Agnus
**kern	**kern	**dynam	**kern	**kern	**text	**text	**text	**text	**dynam	**kern	**text	**dynam	**kern	**text	**dynam	**kern	**text	**dynam
*part6	*part6	*part6	*part5	*part4	*part4	*part4	*part4	*part4	*part4	*part3	*part3	*part3	*part2	*part2	*part2	*part1	*part1	*part1
*staff7	*staff6	*	*staff5	*staff4	*staff4	*staff4	*staff4	*staff4	*	*staff3	*staff3	*	*staff2	*staff2	*	*staff1	*staff1	*
*I"Organo.	*	*	*I"Violoncello	*I"Basso.	*	*	*	*	*	*I"Tenore.	*	*	*I"Soprano 2o	*	*	*I"Soprano 1.o	*	*
*I'Org	*	*	*I'Vc	*I'B	*	*	*	*	*	*I'T.	*	*	*I'S II	*	*	*I'S I	*	*
*clefF4	*clefG2	*	*clefF4	*clefF4	*	*	*	*	*	*clefC4	*	*	*clefG2	*	*	*clefG2	*	*
*k[]	*k[]	*	*k[]	*k[]	*	*	*	*	*	*k[]	*	*	*k[]	*	*	*k[]	*	*
*a:	*a:	*	*a:	*a:	*	*	*	*	*	*a:	*	*	*a:	*	*	*a:	*	*
*M4/4	*M4/4	*	*M4/4	*M4/4	*	*	*	*	*	*M4/4	*	*	*M4/4	*	*	*M4/4	*	*
*met(c)	*met(c)	*	*met(c)	*met(c)	*	*	*	*	*	*met(c)	*	*	*met(c)	*	*	*met(c)	*	*
*>[A,A,B]	*>[A,A,B]	*	*>[A,A,B]	*>[A,A,B]	*	*	*	*	*	*>[A,A,B]	*	*	*>[A,A,B]	*	*	*>[A,A,B]	*	*
*>A	*>A	*	*>A	*>A	*	*	*	*	*	*>A	*	*	*>A	*	*	*>A	*	*
=1	=1	=1	=1	=1	=1	=1	=1	=1	=1	=1	=1	=1	=1	=1	=1	=1	=1	=1
!	!LO:TX:a:Bi:t=Andante	!	!	!	!	!	!	!	!	!	!	!	!	!	!	!LO:TX:a:Bi:t=Andante	!	!
[2E/	[2e/	.	[2E\	1r	.	.	.	.	.	1r	.	.	1r	.	.	1r	.	.
(8E/L]	(8e/L]	.	(8E\L]	.	.	.	.	.	.	.	.	.	.	.	.	.	.	.
8D/	8d/	.	8D\	.	.	.	.	.	.	.	.	.	.	.	.	.	.	.
8C/	8c/	.	8C\	.	.	.	.	.	.	.	.	.	.	.	.	.	.	.
8BB/J	8B/J	.	8BB\J	.	.	.	.	.	.	.	.	.	.	.	.	.	.	.
=2	=2	=2	=2	=2	=2	=2	=2	=2	=2	=2	=2	=2	=2	=2	=2	=2	=2	=2
[2AA/)	[2A/)	.	[2AA/)	2r	.	.	.	.	.	2r	.	.	2r	.	.	2r	.	.
4AA/]	4A/]	.	4AA/]	4r	.	.	.	.	.	4r	.	.	4r	.	.	4r	.	.
4r	4r	.	4r	4A\	U-	Za-	Po-	Pan	.	4A\	U-	.	4a\	U-	.	4a/	U-	.
=3	=3	=3	=3	=3	=3	=3	=3	=3	=3	=3	=3	=3	=3	=3	=3	=3	=3	=3
1r	1r	.	1r	4c\	-pad-	-brzmy-	-wta-	wiecz-	.	4c\	-pad-	.	4cc\	-pad-	.	4cc\	-pad-	.
.	.	.	.	4A\	-niy	-cie	-rzay	-ny	.	4A\	-niy	.	4a\	-niy	.	4a/	-niy	.
.	.	.	.	4G#X\	na	z na-	ludz-	za-	.	4G#X\	na	.	4g#X/	na	.	4g#X/	na	.
.	.	.	.	4A\	ko-	-mi	-ki	-wsze	.	4A\	ko-	.	4a/	ko-	.	4a/	ko-	.
=4	=4	=4	=4	=4	=4	=4	=4	=4	=4	=4	=4	=4	=4	=4	=4	=4	=4	=4
2r	2r	.	2r	2F\	-la-	Nie-	ro-	wszię-	.	2F/	-la-	.	2f/	-la-	.	2f/	-la-	.
4r	4r	.	4r	4E\	-na	-ba	-dzie	-dzie	.	4E/	-na	.	4e/	-na	.	4e/	-na	.
4d\	4e/ 4g#X 4b	.	4B\	4r	.	.	.	.	.	4r	.	.	4r	.	.	4r	.	.
=5	=5	=5	=5	=5	=5	=5	=5	=5	=5	=5	=5	=5	=5	=5	=5	=5	=5	=5
*	*^	*	*	*	*	*	*	*	*	*	*	*	*	*	*	*	*	*
4c\	4a/	1e	.	4A\	1r	.	.	.	.	.	1r	.	.	1r	.	.	1r	.	.
4A\	4a/ 4cc	.	.	4B\	.	.	.	.	.	.	.	.	.	.	.	.	.	.	.
8G#X\L	8b/L 8dd	.	.	8d\L	.	.	.	.	.	.	.	.	.	.	.	.	.	.	.
8A\	8a/ 8cc	.	.	8c\	.	.	.	.	.	.	.	.	.	.	.	.	.	.	.
8B\	8g#X/ 8b	.	.	8B\	.	.	.	.	.	.	.	.	.	.	.	.	.	.	.
8c\J	8a/J	.	.	8A\J	.	.	.	.	.	.	.	.	.	.	.	.	.	.	.
*	*v	*v	*	*	*	*	*	*	*	*	*	*	*	*	*	*	*	*	*
=6	=6	=6	=6	=6	=6	=6	=6	=6	=6	=6	=6	=6	=6	=6	=6	=6	=6	=6
!!LO:LB:g=original
(2d\	((2g#X^\ 2b 2ff	.	(2f^\	1r	.	.	.	.	.	1r	.	.	1r	.	.	1r	.	.
4c\)	4a\)) 4ee	.	4e\)	.	.	.	.	.	.	.	.	.	.	.	.	.	.	.
4r	4r	.	4r	.	.	.	.	.	.	.	.	.	.	.	.	.	.	.
=7	=7	=7	=7	=7	=7	=7	=7	=7	=7	=7	=7	=7	=7	=7	=7	=7	=7	=7
(2B\	((2e^/ 2g#X 2dd	.	(2d^\	1r	.	.	.	.	.	1r	.	.	1r	.	.	1r	.	.
4A\)	4e/)) 4a 4cc	.	(8c\L)	.	.	.	.	.	.	.	.	.	.	.	.	.	.	.
.	.	.	8A\	.	.	.	.	.	.	.	.	.	.	.	.	.	.	.
4r	4r	.	8c\	.	.	.	.	.	.	.	.	.	.	.	.	.	.	.
.	.	.	8e\J)	.	.	.	.	.	.	.	.	.	.	.	.	.	.	.
=8	=8	=8	=8	=8	=8	=8	=8	=8	=8	=8	=8	=8	=8	=8	=8	=8	=8	=8
4DD/ 4D	4B/ 4e 4g#X	f	[1e	4D/	Lu-	Bóg	Bo-	Ku-	.	4B\	Lu-	.	4e/	Lu-	.	4g#X/	Lu-	.
4CC/ 4C	4A/ 4e 4a	.	.	4C/	-du	nas	-giem	-nam	.	4A\	-du	.	4e/	-du	.	4a/	-du	.
4BBB/ 4BB	4e/ 4g#X 4dd	.	.	4BB/	czcią	nie-	prze-	łas-	.	4e\	czcią	.	4g#X/	czcią	.	4dd\	czcią	.
4AAA/ 4AA	4e/ 4a 4cc	.	.	4AA/	prze-	-po-	-ni-	-ką	.	4e\	prze-	.	[4a/	prze-	.	4cc\	prze-	.
=9	=9	=9	=9	=9	=9	=9	=9	=9	=9	=9	=9	=9	=9	=9	=9	=9	=9	=9
*	*^	*	*	*	*	*	*	*	*	*	*	*	*	*	*	*	*	*
2EE/ 2E	(2b/	4e\ 4a	.	4.e\]	2E\	-ię-	-ię-	-knię-	zdię-	.	(4.e\	-ię-	.	4a/]	.	.	2b\	-ię-	.
.	.	8e\L 8g#X	.	.	.	.	.	.	.	.	.	.	.	4g#X/	-ię-	.	.	.	.
.	.	8d\J	.	8d\	.	.	.	.	.	.	8d\)	.	.	.	.	.	.	.	.
4FF/ 4F	4c/) 4a	4rcyy	.	4c\	4F\	-ty	-ty	-ty	-ty	.	4c\	-ty	.	4a/	-ty	.	4a/	-ty	.
4CC#X/ 4C#X	4gn/ 4a 4ee	4reyy	.	4a\	4C#X/	u-	wpo-	na	niech	.	4A\	u-	.	4a/	u-	.	4ee\	u-	.
*	*v	*v	*	*	*	*	*	*	*	*	*	*	*	*	*	*	*	*	*
=10	=10	=10	=10	=10	=10	=10	=10	=10	=10	=10	=10	=10	=10	=10	=10	=10	=10	=10
4DD/ 4D	4f\ 4a 4ff	.	(2a\	4D\	-wiel-	-sta-	wscho-	wiecz-	.	4A\	-wiel-	.	4a/	-wiel-	.	4ff\	-wiel-	.
4FF/ 4F	4d\ 4a 4dd	.	.	4F\	-biay	-ci	-dzie	-nie	.	4A\	-biay	.	4a/	-biay	.	4dd\	-biay	.
4EE/ 4E	4g/ 4a 4cc#X	.	8a\L	4E\	twe-	przy-	i	wiel-	.	4A\	twe-	.	4g/	twe-	.	4cc#X\	twe-	.
.	.	.	8g\	.	.	.	.	.	.	.	.	.	.	.	.	.	.	.
4DD/ 4D	4f/ 4a 4dd	.	8f\)	4D\	-go	-sedł	za-	-bion	.	4A\	-go	.	4f/	-go	.	4dd\	-go	.
.	.	.	8a'\J	.	.	.	.	.	.	.	.	.	.	.	.	.	.	.
=11	=11	=11	=11	=11	=11	=11	=11	=11	=11	=11	=11	=11	=11	=11	=11	=11	=11	=11
!!LO:PB:g=origonal
(2CC#X/ 2C#X	(2a\ 2ee 2gg	>	[4a\	2C#X/	Pa-	Chle-	-cho-	bę-	.	2e\	Pa-	.	2a/	Pa-	.	2gg\	Pa-	.
.	.	.	16a\LL]	.	.	.	.	.	.	.	.	.	.	.	.	.	.	.
.	.	.	16g\	.	.	.	.	.	.	.	.	.	.	.	.	.	.	.
.	.	]	16f\	.	.	.	.	.	.	.	.	.	.	.	.	.	.	.
.	.	.	16e\JJ	.	.	.	.	.	.	.	.	.	.	.	.	.	.	.
4DD/) 4D	8a\L) 8dd 8ff	.	8d\L	4D/	-na	-ba	-dzie	-dzie	.	4d\	-na	.	4a/	-na	.	4ff\	-na	.
.	(8ff\ 8aa	.	8a\	.	.	.	.	.	.	.	.	.	.	.	.	.	.	.
4ryy	8ee\ 8gg	.	8g\	4r	.	.	.	.	.	4r	.	.	4r	.	.	4r	.	.
.	8dd\J) 8ff	.	8f\J	.	.	.	.	.	.	.	.	.	.	.	.	.	.	.
=12	=12	=12	=12	=12	=12	=12	=12	=12	=12	=12	=12	=12	=12	=12	=12	=12	=12	=12
4EE/ 4E	4cc\ 4ee	.	4e\	2E\	Swię-	Swię-	Swię-	Swię-	.	(4.c\	Swię-	.	(4.a/	Swię-	.	(4.ee\	Swię-	.
4r	4r	.	4r	.	.	.	.	.	.	.	.	.	.	.	.	.	.	.
.	.	.	.	.	.	.	.	.	.	8B\)	.	.	8g#X/)	.	.	8dd\)	.	.
4EE/ 4E	8r	.	8r	4E\	-ty	-ty	-ty	-ty	.	4A\	-ty	.	4e/	-ty	.	4cc\	-ty	.
.	8cc\L 8ee	.	8e\L	.	.	.	.	.	.	.	.	.	.	.	.	.	.	.
4r	8b\ 8dd	.	8d\	4r	.	.	.	.	.	4r	.	.	4r	.	.	4r	.	.
.	8a\J 8cc	.	8c\J	.	.	.	.	.	.	.	.	.	.	.	.	.	.	.
=13	=13	=13	=13	=13	=13	=13	=13	=13	=13	=13	=13	=13	=13	=13	=13	=13	=13	=13
4EE/ 4E	4g#X/ 4b	.	4B\	2E\	Swię-	Swię-	Swię-	Swię-	.	(4.B\	Swię-	.	(4.b\	Swię-	.	(4.dd\	Swię-	.
4r	4r	.	4r	.	.	.	.	.	.	.	.	.	.	.	.	.	.	.
.	.	.	.	.	.	.	.	.	.	8c\)	.	.	8a\)	.	.	8cc\)	.	.
4EE/ 4E	8r	.	8r	4E\	-ty	-ty	-ty	-ty	.	4d\	-ty	.	4g#X/	-ty	.	4b\	-ty	.
.	8b\L 8dd	.	8d\L	.	.	.	.	.	.	.	.	.	.	.	.	.	.	.
4r	8a\ 8cc	.	8c\	4r	.	.	.	.	.	4r	.	.	4r	.	.	4r	.	.
.	8g#\J 8b	.	8B\J	.	.	.	.	.	.	.	.	.	.	.	.	.	.	.
=14	=14	=14	=14	=14	=14	=14	=14	=14	=14	=14	=14	=14	=14	=14	=14	=14	=14	=14
*	*	*	*	*^	*	*	*	*	*	*^	*	*	*^	*	*	*^	*	*
!	!	!	!	!	!	!	!	!	!	!LO:DY:a	!	!	!	!LO:DY:a	!	!	!	!LO:DY:a	!	!	!	!LO:DY:a
[1AAA [1AA	1e 1a [1cc#X	.	(>16c#X\LL	1AA	2rGGyy	Swię-	Swię-	Swię-	Swię-	<	1c#X 1e	2ryy	Swię-	<	1a	2ryy	Swię-	<	1cc#X	2ryy	Swię-	<
.	.	.	16e\	.	.	.	.	.	.	.	.	.	.	.	.	.	.	.	.	.	.	.
.	.	.	16c#\	.	.	.	.	.	.	.	.	.	.	.	.	.	.	.	.	.	.	.
.	.	.	16A\JJ	.	.	.	.	.	.	.	.	.	.	.	.	.	.	.	.	.	.	.
.	.	.	16E\LL	.	.	.	.	.	.	.	.	.	.	.	.	.	.	.	.	.	.	.
.	.	.	16A\	.	.	.	.	.	.	.	.	.	.	.	.	.	.	.	.	.	.	.
.	.	.	16E\	.	.	.	.	.	.	.	.	.	.	.	.	.	.	.	.	.	.	.
!	!	!	!LO:SIC:s=16C#:v	!	!	!	!	!	!	!	!	!	!	!	!	!	!	!	!	!	!	!
.	.	.	16C\JJ)	.	.	.	.	.	.	.	.	.	.	.	.	.	.	.	.	.	.	.
!	!	!	!	!	!	!	!	!	!	!LO:DY:a	!	!	!	!LO:DY:a	!	!	!	!LO:DY:a	!	!	!	!LO:DY:a
.	.	.	16AA\LL	.	2rGGyy	.	.	.	.	[ >	.	2ryy	.	[ >	.	2ryy	.	[ >	.	2ryy	.	[ >
.	.	.	16C\	.	.	.	.	.	.	.	.	.	.	.	.	.	.	.	.	.	.	.
.	.	.	16E\	.	.	.	.	.	.	.	.	.	.	.	.	.	.	.	.	.	.	.
.	.	.	16A\JJ	.	.	.	.	.	.	.	.	.	.	.	.	.	.	.	.	.	.	.
.	.	.	16c#\LL	.	.	.	.	.	.	.	.	.	.	.	.	.	.	.	.	.	.	.
.	.	.	16A\	.	.	.	.	.	.	.	.	.	.	.	.	.	.	.	.	.	.	.
.	.	.	16c#\	.	.	.	.	.	.	.	.	.	.	.	.	.	.	.	.	.	.	.
.	.	.	16e\JJ	.	.	.	.	.	.	]	.	.	.	]	.	.	.	]	.	.	.	]
*	*	*	*	*v	*v	*	*	*	*	*	*	*	*	*	*v	*v	*	*	*v	*v	*	*
*	*	*	*	*	*	*	*	*	*	*v	*v	*	*	*	*	*	*	*	*
=15	=15	=15	=15	=15	=15	=15	=15	=15	=15	=15	=15	=15	=15	=15	=15	=15	=15	=15
!	!	!	!	!	!	!	!	!	!	!	!	!	!	!	!	!LO:SIC:s=2cc#:v	!	!
1AAA_ 1AA_	2e/ 2a 2cc#X]	.	[1a	2AA/	-ty.	-ty.	-ty.	-ty.	.	2c#X\ 2e	-ty	.	2a/	-ty	.	2cc\	-ty.	.
.	4.fn/ 4.a 4.dd	.	.	2r	.	.	.	.	.	2r	.	.	2r	.	.	2r	.	.
.	8e/ 8a 8cc#	.	.	.	.	.	.	.	.	.	.	.	.	.	.	.	.	.
=16	=16	=16	=16	=16	=16	=16	=16	=16	=16	=16	=16	=16	=16	=16	=16	=16	=16	=16
!!LO:LB:g=original
!LO:TX:a:t=P:problem:brak zakończenia ligatur	!	!	!	!	!	!	!	!	!	!	!	!	!	!	!	!	!	!
4AAA]/ 4AA]	4e/ 4a 4cc#X	.	4a\]	1r	.	.	.	.	.	1r	.	.	1r	.	.	1r	.	.
[2A\	[2a/	.	[2A\	.	.	.	.	.	.	.	.	.	.	.	.	.	.	.
16A\LL]	16a/LL]	.	16A\LL]	.	.	.	.	.	.	.	.	.	.	.	.	.	.	.
16G#X\	16g#X/	.	16G#X\	.	.	.	.	.	.	.	.	.	.	.	.	.	.	.
16A\	16a/	.	16A\	.	.	.	.	.	.	.	.	.	.	.	.	.	.	.
16B\JJ	16b/JJ	.	16B\JJ	.	.	.	.	.	.	.	.	.	.	.	.	.	.	.
=17	=17	=17	=17	=17	=17	=17	=17	=17	=17	=17	=17	=17	=17	=17	=17	=17	=17	=17
(2cn\	(2ccn\	.	(2cn\	1r	.	.	.	.	.	1r	.	.	1r	.	.	1r	.	.
4D#X\)	4d#X/)	.	4D#X/)	.	.	.	.	.	.	.	.	.	.	.	.	.	.	.
4r	4r	.	4r	.	.	.	.	.	.	.	.	.	.	.	.	.	.	.
=18:|!	=18:|!	=18:|!	=18:|!	=18:|!	=18:|!	=18:|!	=18:|!	=18:|!	=18:|!	=18:|!	=18:|!	=18:|!	=18:|!	=18:|!	=18:|!	=18:|!	=18:|!	=18:|!
*>B	*>B	*	*>B	*>B	*	*	*	*	*	*>B	*	*	*>B	*	*	*>B	*	*
[2E/	[2e/	.	[2E\	1r	.	.	.	.	.	1r	.	.	1r	.	.	1r	.	.
8E/L]	8e/L]	.	8E\L]	.	.	.	.	.	.	.	.	.	.	.	.	.	.	.
8D/	8d/	.	8Dn\	.	.	.	.	.	.	.	.	.	.	.	.	.	.	.
8C/	8c/	.	8C\	.	.	.	.	.	.	.	.	.	.	.	.	.	.	.
8BB/J	8B/J	.	8BB\J	.	.	.	.	.	.	.	.	.	.	.	.	.	.	.
=19	=19	=19	=19	=19	=19	=19	=19	=19	=19	=19	=19	=19	=19	=19	=19	=19	=19	=19
*	*^	*	*	*	*	*	*	*	*	*	*	*	*	*	*	*	*	*
4AA/	4A/	4ryy	.	4AA/	1r	.	.	.	.	.	1r	.	.	1r	.	.	1r	.	.
4FF/ 4F	4f/ 4a 4cc	4ryy	.	4F\	.	.	.	.	.	.	.	.	.	.	.	.	.	.	.
4DD/ 4D	2b/	4f\ 4a	.	4D\	.	.	.	.	.	.	.	.	.	.	.	.	.	.	.
4EE/ 4E	.	4d\ 4e 4g#X	.	4E\	.	.	.	.	.	.	.	.	.	.	.	.	.	.	.
*	*v	*v	*	*	*	*	*	*	*	*	*	*	*	*	*	*	*	*	*
=20	=20	=20	=20	=20	=20	=20	=20	=20	=20	=20	=20	=20	=20	=20	=20	=20	=20	=20
2AAA/ 2AA	2d/ 2e 2g#X 2b	.	2AA/	1r	.	.	.	.	.	1r	.	.	1r	.	.	1r	.	.
4AAA/ 4AA	4c/ 4e 4a	.	4AA/	.	.	.	.	.	.	.	.	.	.	.	.	.	.	.
4r	4r	.	4r	.	.	.	.	.	.	.	.	.	.	.	.	.	.	.
==	==	==	==	==	==	==	==	==	==	==	==	==	==	==	==	==	==	==
*-	*-	*-	*-	*-	*-	*-	*-	*-	*-	*-	*-	*-	*-	*-	*-	*-	*-	*-
!!!system-decoration: [s1,s2,s3,s4,s5{(s6,s7)}]
!!!RDF**kern: > = above
!!!RDF**kern: < = below
!!!ENC: Andrzej Kubiczek
!!!END: 2020-03-05
!!!ENC: Marta Lawrence
!!!END: 2020-04-03
